svgs/themed_icon_calendar_10.svg

<svg height="192" width="192" xmlns="http://www.w3.org/2000/svg"><path d="M146 30H46c-8.837 0-16 7.163-16 16v100c0 8.837 7.163 16 16 16h75.373a16 16 0 0 0 11.313-4.686l24.628-24.628A16 16 0 0 0 162 121.373V46c0-8.837-7.163-16-16-16Z" stroke="#000" stroke-width="12" fill="none"/><path d="M64.852 120c-3.168 0-4.752-1.536-4.752-4.608 0-3.024 1.584-4.536 4.752-4.536h7.272V81.624l-5.256 3.168c-1.392.816-2.64 1.032-3.744.648s-1.944-1.104-2.52-2.16c-.576-1.056-.744-2.184-.504-3.384.24-1.248 1.032-2.304 2.376-3.168l10.008-6.048a17.78 17.78 0 0 1 3.024-1.512c1.056-.384 2.088-.576 3.096-.576 1.44 0 2.568.384 3.384 1.152.864.768 1.296 1.896 1.296 3.384v37.728h6.552c3.12 0 4.68 1.512 4.68 4.536 0 3.072-1.56 4.608-4.68 4.608H64.852Zm52.028.792c-6.144 0-10.848-2.28-14.112-6.84-3.216-4.56-4.824-11.064-4.824-19.512s1.608-14.88 4.824-19.296c3.264-4.464 7.968-6.696 14.112-6.696s10.824 2.232 14.04 6.696c3.264 4.416 4.896 10.848 4.896 19.296 0 8.448-1.632 14.952-4.896 19.512-3.216 4.56-7.896 6.84-14.04 6.84Zm0-9.072c2.784 0 4.848-1.368 6.192-4.104 1.344-2.784 2.016-7.176 2.016-13.176s-.672-10.32-2.016-12.96c-1.344-2.64-3.408-3.96-6.192-3.96-2.784 0-4.848 1.32-6.192 3.96-1.344 2.64-2.016 6.96-2.016 12.96 0 6 .672 10.392 2.016 13.176 1.344 2.736 3.408 4.104 6.192 4.104Z"/></svg>

<?xml version="1.0" encoding="UTF-8" standalone="no"?><svg xmlns:android="http://schemas.android.com/apk/res/android" height="192" width="192" xmlns="http://www.w3.org/2000/svg">
  <path d="M146,30H46C37.163,30 30,37.163 30,46V146C30,154.837 37.163,162 46,162H121.373C125.616,162 129.686,160.314 132.686,157.314L157.314,132.686C160.314,129.686 162,125.616 162,121.373V46C162,37.163 154.837,30 146,30Z" fill="#000000" fill-opacity="0.0" stroke="#000000" stroke-width="12"/>
  <path d="M64.852,120C61.684,120 60.1,118.464 60.1,115.392C60.1,112.368 61.684,110.856 64.852,110.856H72.124V81.624L66.868,84.792C65.476,85.608 64.228,85.824 63.124,85.44C62.02,85.056 61.18,84.336 60.604,83.28C60.028,82.224 59.86,81.096 60.1,79.896C60.34,78.648 61.132,77.592 62.476,76.728L72.484,70.68C73.492,70.056 74.5,69.552 75.508,69.168C76.564,68.784 77.596,68.592 78.604,68.592C80.044,68.592 81.172,68.976 81.988,69.744C82.852,70.512 83.284,71.64 83.284,73.128V110.856H89.836C92.956,110.856 94.516,112.368 94.516,115.392C94.516,118.464 92.956,120 89.836,120H64.852ZM116.88,120.792C110.736,120.792 106.032,118.512 102.768,113.952C99.552,109.392 97.944,102.888 97.944,94.44C97.944,85.992 99.552,79.56 102.768,75.144C106.032,70.68 110.736,68.448 116.88,68.448C123.024,68.448 127.704,70.68 130.92,75.144C134.184,79.56 135.816,85.992 135.816,94.44C135.816,102.888 134.184,109.392 130.92,113.952C127.704,118.512 123.024,120.792 116.88,120.792ZM116.88,111.72C119.664,111.72 121.728,110.352 123.072,107.616C124.416,104.832 125.088,100.44 125.088,94.44C125.088,88.44 124.416,84.12 123.072,81.48C121.728,78.84 119.664,77.52 116.88,77.52C114.096,77.52 112.032,78.84 110.688,81.48C109.344,84.12 108.672,88.44 108.672,94.44C108.672,100.44 109.344,104.832 110.688,107.616C112.032,110.352 114.096,111.72 116.88,111.72Z" fill="#000000"/>
</svg>
